src/assets/success.svg

<svg fill="green" height="24" width="24" xmlns="http://www.w3.org/2000/svg"><path d="M23 12l-2.44-2.78.34-3.68-3.61-.82-1.89-3.18L12 3 8.6 1.54 6.71 4.72l-3.61.81.34 3.68L1 12l2.44 2.78-.34 3.69 3.61.82 1.89 3.18L12 21l3.4 1.46 1.89-3.18 3.61-.82-.34-3.68L23 12m-13 5l-4-4 1.41-1.41L10 14.17l6.59-6.59L18 9l-8 8z"/></svg>

<svg fill='green' height='24' width='24' xmlns='http://www.w3.org/2000/svg'>
  <path d='M23,12L20.56,9.22L20.9,5.54L17.29,4.72L15.4,1.54L12,3L8.6,1.54L6.71,4.72L3.1,5.53L3.44,9.21L1,12L3.44,14.78L3.1,18.47L6.71,19.29L8.6,22.47L12,21L15.4,22.46L17.29,19.28L20.9,18.46L20.56,14.78L23,12M10,17L6,13L7.41,11.59L10,14.17L16.59,7.58L18,9L10,17Z' />
</svg>
